X: 35311
T: Rose Tree, The
R: polka
M: 2/4
K: Dmajor
f/e/|:dB AF|A2 AB/c/|d2 ed/e/|fe ef/e/|
dB AF|A2 AB/c/|d2 ed/e/|1 fd df/e/:|2 fd d>e||
|:fd fg|a2 gf|eb ba|be ef/e/|
dB AF|A2 AB/c/|d2 ed/e/|1 fd d>e:|2 fd df/e/||

